X: 32
T:Swallowtail Jig [in E], The
T:Swallow's Nest, The
M:6/8
L:1/8
R:Double Jig
K:EDor
F[|:GEE BEE|GEG BAG|FDD ADD|dcd AGF|!
GEE BEE|GEG B2c|dcd AGF|1GEE E2F:|2GEE E2A|!
|:Bcd e2f|e2f edB|Bcd e2f|edB ~d3|!
Bcd e2f|e2f edB|dcd AGF|1GEE E2A:|2GEE E2F|]!
